; generated by Slic3r 1.1.7 on 2015-05-04 at 17:47:11

; perimeters extrusion width = 0.33mm
; infill extrusion width = 0.50mm
; solid infill extrusion width = 0.38mm
; top infill extrusion width = 0.22mm
; support material extrusion width = 0.35mm

G21 ; set units to millimeters
M107
M190 S115 ; wait for bed temperature to be reached
M104 S240 ; set temperature
G28 ; home all axes
M203 X192 Y208 Z3 ; Speed limits to minimize skipped steps when moving really fast courtesy of forum.lulzbot.com user 1013
M109 S240 ; wait for temperature to be reached
G90 ; use absolute coordinates
G92 E0
M82 ; use absolute distances for extrusion
M204 S200
G1 F1500.000 E-2.00000
G92 E0
G1 Z0.300 F10800.000
G1 X138.923 Y117.492 F10800.000
G1 E2.00000 F1500.000
G1 X140.865 Y116.175 E2.04660 F720.000
G1 X143.731 Y115.554 E2.10483
G1 X153.910 Y115.554 E2.30693
G1 X156.224 Y115.951 E2.35353
G1 X157.524 Y116.570 E2.38212 F720.000
G1 X158.123 Y116.936 E2.39606
G1 X159.891 Y118.480 E2.44266
G1 X161.241 Y121.186 E2.50270
G1 X164.701 Y135.404 E2.79323
G1 X164.898 Y137.275 E2.83059
G1 X164.898 Y138.725 E2.85937
G1 X164.516 Y141.616 E2.91728
G1 X161.222 Y154.284 E3.17714
G1 X160.710 Y155.646 E3.20604
G1 X160.223 Y156.618 E3.22762
G1 X158.832 Y158.508 E3.27422
G1 X156.890 Y159.825 E3.32082
G1 X154.023 Y160.446 E3.37905
G1 X143.844 Y160.446 E3.58115
G1 X141.531 Y160.049 E3.62775
G1 X139.483 Y158.903 E3.67435
G1 X137.435 Y156.162 E3.74227
G1 X136.774 Y154.385 E3.77992
G1 X133.299 Y140.596 E4.06224
G1 X133.102 Y138.725 E4.09960
G1 X133.102 Y137.275 E4.12838
G1 X133.469 Y134.445 E4.18505
G1 X136.762 Y121.288 E4.45433
G1 X137.290 Y119.864 E4.48448
G1 X137.531 Y119.382 E4.49518
G1 X138.891 Y117.535 E4.54073
G1 X139.303 Y117.776 F10800.000
G1 X141.202 Y116.538 E4.58574 F720.000
G1 X143.731 Y116.022 E4.63700
G1 X153.910 Y116.022 E4.83910
G1 X156.141 Y116.419 E4.88408
G1 X157.280 Y116.969 E4.90919 F720.000
G1 X157.880 Y117.335 E4.92314
G1 X159.577 Y118.836 E4.96813
G1 X160.787 Y121.298 E5.02260
G1 X164.236 Y135.453 E5.31185
G1 X164.432 Y137.324 E5.34920
G1 X164.432 Y138.676 E5.37605
G1 X164.063 Y141.499 E5.43257
G1 X160.770 Y154.166 E5.69243
G1 X160.292 Y155.437 E5.71938
G1 X159.805 Y156.408 E5.74096
G1 X158.451 Y158.225 E5.78594
G1 X156.553 Y159.462 E5.83093
G1 X154.023 Y159.978 E5.88219
G1 X143.844 Y159.978 E6.08429
G1 X141.613 Y159.581 E6.12928
G1 X139.656 Y158.439 E6.17427
G1 X137.868 Y155.983 E6.23459
G1 X137.227 Y154.268 E6.27094
G1 X133.764 Y140.547 E6.55190
G1 X133.568 Y138.676 E6.58925
G1 X133.568 Y137.324 E6.61610
G1 X133.922 Y134.558 E6.67146
G1 X137.216 Y121.401 E6.94074
G1 X137.708 Y120.074 E6.96885
G1 X137.949 Y119.592 E6.97955
G1 X139.272 Y117.818 E7.02348
G1 F1500.000 E5.02348
G92 E0
G1 X151.663 Y139.935 F10800.000
G1 E2.00000 F1500.000
G1 X151.203 Y140.447 E2.01366 F960.000
G1 X150.646 Y140.851 E2.02733
G1 X150.017 Y141.131 E2.04099
G1 X149.344 Y141.274 E2.05466
G1 X148.656 Y141.274 E2.06832
G1 X147.983 Y141.131 E2.08199
G1 X147.354 Y140.851 E2.09565
G1 X146.797 Y140.447 E2.10932
G1 X146.337 Y139.935 E2.12298
G1 X145.992 Y139.339 E2.13665
G1 X145.780 Y138.684 E2.15031
G1 X145.708 Y138.000 E2.16398
G1 X145.780 Y137.316 E2.17764
G1 X145.992 Y136.661 E2.19131
G1 X146.337 Y136.065 E2.20497
G1 X146.797 Y135.553 E2.21864
G1 X147.354 Y135.149 E2.23230
G1 X147.983 Y134.869 E2.24597
G1 X148.656 Y134.726 E2.25963
G1 X149.344 Y134.726 E2.27330
G1 X150.017 Y134.869 E2.28696
G1 X150.646 Y135.149 E2.30063 F960.000
G1 X151.203 Y135.553 E2.31429
G1 X151.663 Y136.065 E2.32795
G1 X152.008 Y136.661 E2.34162
G1 X152.220 Y137.316 E2.35528
G1 X152.292 Y138.000 E2.36895
G1 X152.220 Y138.684 E2.38261
G1 X152.008 Y139.339 E2.39628
G1 X151.690 Y139.890 E2.40890
G1 X151.283 Y139.659 F10800.000
G1 X150.888 Y140.097 E2.42061 F960.000
G1 X150.411 Y140.444 E2.43233
G1 X149.872 Y140.684 E2.44404
G1 X149.295 Y140.806 E2.45575
G1 X148.705 Y140.806 E2.46746
G1 X148.128 Y140.684 E2.47918
G1 X147.589 Y140.444 E2.49089
G1 X147.112 Y140.097 E2.50260
G1 X146.717 Y139.659 E2.51431
G1 X146.422 Y139.148 E2.52602
G1 X146.240 Y138.587 E2.53774
G1 X146.178 Y138.000 E2.54945
G1 X146.240 Y137.413 E2.56116
G1 X146.422 Y136.852 E2.57287
G1 X146.717 Y136.341 E2.58459
G1 X147.112 Y135.903 E2.59630
G1 X147.589 Y135.556 E2.60801
G1 X148.128 Y135.316 E2.61972
G1 X148.705 Y135.194 E2.63143
G1 X149.295 Y135.194 E2.64315 F960.000
G1 X149.872 Y135.316 E2.65486
G1 X150.411 Y135.556 E2.66657
G1 X150.888 Y135.903 E2.67828
G1 X151.283 Y136.341 E2.69000
G1 X151.578 Y136.852 E2.70171
G1 X151.760 Y137.413 E2.71342
G1 X151.822 Y138.000 E2.72513
G1 X151.760 Y138.587 E2.73685
G1 X151.578 Y139.148 E2.74856
G1 X151.309 Y139.613 E2.75923
G1 X150.902 Y139.382 F10800.000
G1 X150.573 Y139.747 E2.76899 F720.000
G1 X150.176 Y140.036 E2.77875
G1 X149.727 Y140.236 E2.78851
G1 X149.246 Y140.339 E2.79827
G1 X148.754 Y140.339 E2.80803
G1 X148.273 Y140.236 E2.81779
G1 X147.824 Y140.036 E2.82755
G1 X147.427 Y139.747 E2.83731
G1 X147.098 Y139.382 E2.84707
G1 X146.852 Y138.956 E2.85683
G1 X146.700 Y138.489 E2.86659
G1 X146.649 Y138.000 E2.87635
G1 X146.700 Y137.511 E2.88611
G1 X146.852 Y137.044 E2.89587
G1 X147.098 Y136.618 E2.90563
G1 X147.427 Y136.253 E2.91539
G1 X147.824 Y135.964 E2.92515
G1 X148.273 Y135.764 E2.93491
G1 X148.754 Y135.661 E2.94467
G1 X149.246 Y135.661 E2.95443
G1 X149.727 Y135.764 E2.96419
G1 X150.176 Y135.964 E2.97395 F720.000
G1 X150.573 Y136.253 E2.98371
G1 X150.902 Y136.618 E2.99347
G1 X151.148 Y137.044 E3.00323
G1 X151.300 Y137.511 E3.01299
G1 X151.351 Y138.000 E3.02275
G1 X151.300 Y138.489 E3.03251
G1 X151.148 Y138.956 E3.04227
G1 X150.929 Y139.337 E3.05098
G1 F1500.000 E1.05098
G92 E0
G1 X149.775 Y135.417 F10800.000
G1 X154.935 Y143.013 F10800.000
G1 E2.00000 F1500.000
G1 X154.224 Y143.802 E2.02108 F960.000
G1 X152.904 Y144.762 E2.05349
G1 X151.413 Y145.426 E2.08590
G1 X149.816 Y145.765 E2.11831
G1 X148.184 Y145.765 E2.15072
G1 X146.587 Y145.426 E2.18312
G1 X145.096 Y144.762 E2.21553
G1 X143.776 Y143.802 E2.24794
G1 X142.683 Y142.589 E2.28035
G1 X141.867 Y141.176 E2.31276
G1 X141.363 Y139.623 E2.34517
G1 X141.192 Y138.000 E2.37757
G1 X141.363 Y136.377 E2.40998
G1 X141.867 Y134.824 E2.44239
G1 X142.683 Y133.411 E2.47480
G1 X143.776 Y132.198 E2.50721
G1 X145.096 Y131.238 E2.53961
G1 X146.587 Y130.574 E2.57202
G1 X148.184 Y130.235 E2.60443
G1 X149.816 Y130.235 E2.63684
G1 X151.413 Y130.574 E2.66925
G1 X152.904 Y131.238 E2.70165 F960.000
G1 X154.224 Y132.198 E2.73406
G1 X155.317 Y133.411 E2.76647
G1 X156.133 Y134.824 E2.79888
G1 X156.637 Y136.377 E2.83129
G1 X156.808 Y138.000 E2.86370
G1 X156.637 Y139.623 E2.89610
G1 X156.133 Y141.176 E2.92851
G1 X155.317 Y142.589 E2.96092
G1 X154.970 Y142.974 E2.97120
G1 X155.283 Y143.326 F10800.000
G1 X154.539 Y144.152 E2.99326 F960.000
G1 X153.139 Y145.169 E3.02762
G1 X151.558 Y145.873 E3.06198
G1 X149.865 Y146.233 E3.09634
G1 X148.135 Y146.233 E3.13070
G1 X146.442 Y145.873 E3.16506
G1 X144.861 Y145.169 E3.19943
G1 X143.461 Y144.152 E3.23379
G1 X142.303 Y142.866 E3.26815
G1 X141.437 Y141.367 E3.30251
G1 X140.903 Y139.721 E3.33687
G1 X140.722 Y138.000 E3.37123
G1 X140.903 Y136.279 E3.40559
G1 X141.437 Y134.633 E3.43995
G1 X142.303 Y133.134 E3.47431
G1 X143.461 Y131.848 E3.50867
G1 X144.861 Y130.831 E3.54303
G1 X146.442 Y130.127 E3.57739
G1 X148.135 Y129.767 E3.61175
G1 X149.865 Y129.767 E3.64611 F960.000
G1 X151.558 Y130.127 E3.68047
G1 X153.139 Y130.831 E3.71483
G1 X154.539 Y131.848 E3.74919
G1 X155.697 Y133.134 E3.78356
G1 X156.563 Y134.633 E3.81792
G1 X157.097 Y136.279 E3.85228
G1 X157.278 Y138.000 E3.88664
G1 X157.097 Y139.721 E3.92100
G1 X156.563 Y141.367 E3.95536
G1 X155.697 Y142.866 E3.98972
G1 X155.318 Y143.287 E4.00098
G1 X155.630 Y143.639 F10800.000
G1 X154.854 Y144.501 E4.02401 F720.000
G1 X153.374 Y145.577 E4.06033
G1 X151.703 Y146.320 E4.09664
G1 X149.914 Y146.701 E4.13295
G1 X148.086 Y146.701 E4.16927
G1 X146.297 Y146.320 E4.20558
G1 X144.626 Y145.577 E4.24189
G1 X143.146 Y144.501 E4.27820
G1 X141.922 Y143.142 E4.31452
G1 X141.008 Y141.558 E4.35083
G1 X140.443 Y139.819 E4.38714
G1 X140.251 Y138.000 E4.42346
G1 X140.443 Y136.181 E4.45977
G1 X141.008 Y134.442 E4.49608
G1 X141.922 Y132.858 E4.53240
G1 X143.146 Y131.499 E4.56871
G1 X144.626 Y130.423 E4.60502
G1 X146.297 Y129.680 E4.64133
G1 X148.086 Y129.299 E4.67765
G1 X149.914 Y129.299 E4.71396
G1 X149.981 Y129.313 E4.71531
G1 X151.703 Y129.680 E4.75027 F720.000
G1 X153.374 Y130.423 E4.78659
G1 X154.854 Y131.499 E4.82290
G1 X156.078 Y132.858 E4.85921
G1 X156.992 Y134.442 E4.89553
G1 X157.557 Y136.181 E4.93184
G1 X157.749 Y138.000 E4.96815
G1 X157.557 Y139.819 E5.00446
G1 X156.992 Y141.558 E5.04078
G1 X156.078 Y143.142 E5.07709
G1 X155.665 Y143.600 E5.08932
G1 X150.284 Y129.489 F10800.000
G1 X152.090 Y131.225 F10800.000
G1 X155.849 Y134.984 E5.19488 F960.000
G1 X156.177 Y135.992 E5.21592
G1 X150.997 Y130.812 E5.36136
G1 X150.133 Y130.628 E5.37890
G1 X156.367 Y136.863 E5.55397
G1 X156.447 Y137.624 E5.56914
G1 X149.378 Y130.554 E5.76764
G1 X148.698 Y130.554 E5.78115
G1 X156.454 Y138.311 E5.99895
G1 X156.390 Y138.926 E6.01124
G1 X148.052 Y130.589 E6.24533
G1 X147.491 Y130.708 E6.25672
G1 X156.325 Y139.542 E6.50475
G1 X156.160 Y140.058 E6.51551
G1 X146.930 Y130.828 E6.77468
G1 X146.420 Y130.998 E6.78535
G1 X149.951 Y134.529 E6.88448
G1 X149.149 Y134.407 E6.90059
G1 X145.949 Y131.208 E6.99042
G1 X145.479 Y131.417 E7.00065
G1 X148.495 Y134.434 E7.08535
G1 X147.934 Y134.553 E7.09674
G1 X145.048 Y131.667 E7.17777
G1 X144.654 Y131.954 E7.18744
G1 X147.455 Y134.754 E7.26608
G1 X147.019 Y134.998 E7.27601
G1 X144.260 Y132.240 E7.35346
G1 X143.897 Y132.557 E7.36303
G1 X146.625 Y135.284 E7.43960
G1 X146.295 Y135.635 E7.44916
G1 X143.567 Y132.907 E7.52575
G1 X143.244 Y133.265 E7.53532
G1 X145.996 Y136.017 E7.61259
G1 X145.747 Y136.448 E7.62247
G1 X142.927 Y133.628 E7.70167
G1 X142.678 Y134.059 E7.71155
G1 X145.564 Y136.946 E7.79261
G1 X145.439 Y137.501 E7.80391
G1 X142.429 Y134.490 E7.88845
G1 X142.180 Y134.921 E7.89834
G1 X145.402 Y138.144 E7.98882
G1 X145.532 Y138.954 E8.00511
G1 X142.006 Y135.429 E8.10410
G1 X141.840 Y135.942 E8.11482
G1 X151.070 Y145.172 E8.37399
G1 X151.580 Y145.002 E8.38466
G1 X148.049 Y141.471 E8.48380
G1 X148.851 Y141.593 E8.49991
G1 X152.051 Y144.792 E8.58973
G1 X152.521 Y144.583 E8.59996
G1 X149.505 Y141.566 E8.68466
G1 X150.066 Y141.447 E8.69605
G1 X152.952 Y144.333 E8.77708
G1 X153.346 Y144.046 E8.78675
G1 X150.545 Y141.246 E8.86539
G1 X150.981 Y141.002 E8.87532
G1 X153.740 Y143.760 E8.95277
G1 X154.103 Y143.443 E8.96234
G1 X151.375 Y140.716 E9.03891
G1 X151.705 Y140.365 E9.04847
G1 X154.433 Y143.093 E9.12507
G1 X154.756 Y142.735 E9.13463
G1 X152.004 Y139.983 E9.21190
G1 X152.253 Y139.552 E9.22179
G1 X155.073 Y142.373 E9.30098
G1 X155.322 Y141.941 E9.31087
G1 X152.436 Y139.054 E9.39192
G1 X152.561 Y138.499 E9.40322
G1 X155.571 Y141.510 E9.48776
G1 X155.820 Y141.079 E9.49765
G1 X152.598 Y137.856 E9.58813
G1 X152.468 Y137.046 E9.60442
G1 X155.994 Y140.571 E9.70341
G1 X150.509 Y145.292 F10800.000
G1 X141.675 Y136.458 E9.95144 F960.000
G1 X141.610 Y137.074 E9.96373
G1 X149.948 Y145.411 E10.19783
G1 X149.302 Y145.446 E10.21066
G1 X141.546 Y137.689 E10.42846
G1 X141.553 Y138.377 E10.44210
G1 X148.622 Y145.446 E10.64060
G1 X147.867 Y145.372 E10.65566
G1 X141.633 Y139.137 E10.83072
G1 X141.823 Y140.008 E10.84843
G1 X147.003 Y145.188 E10.99387
G1 X145.910 Y144.775 F10800.000
G1 X142.151 Y141.016 E11.09942 F960.000
G1 X143.734 Y143.279 F10800.000
G1 X144.094 Y143.639 E11.10955 F960.000
G1 X142.477 Y133.397 F10800.000
G1 X154.267 Y132.721 F10800.000
G1 X153.906 Y132.361 E11.11968 F960.000
M204 S200
G1 F1500.000 E9.11968
G92 E0
G1 X154.510 Y129.105 F10800.000
G1 E2.00000 F1500.000
G1 X154.065 Y129.992 E2.01474 F720.000
G1 X153.461 Y129.636 E2.02517
G1 X154.510 Y127.543 E2.05994
G1 X154.510 Y125.980 E2.08315
G1 X152.821 Y129.351 E2.13915
G1 X152.181 Y129.066 E2.14956
G1 X154.510 Y124.418 E2.22678
G1 X154.510 Y122.856 E2.24998
G1 X151.499 Y128.864 E2.34981
G1 X150.791 Y128.714 E2.36056
G1 X153.910 Y122.490 E2.46397
G1 X153.127 Y122.490 E2.47560
G1 X150.083 Y128.563 E2.57652
G1 X149.310 Y128.544 E2.58801
G1 X152.344 Y122.490 E2.68861
G1 X151.561 Y122.490 E2.70024
G1 X148.527 Y128.544 E2.80083
G1 X147.713 Y128.607 E2.81296
G1 X150.778 Y122.490 E2.91460
G1 X149.995 Y122.490 E2.92623
G1 X146.836 Y128.793 E3.03096
G1 X145.945 Y129.010 E3.04459
G1 X149.212 Y122.490 E3.15292
G1 X148.429 Y122.490 E3.16455
G1 X144.937 Y129.458 E3.28034
G1 X143.859 Y130.048 E3.29859
G1 X147.646 Y122.490 E3.42416
G1 X146.863 Y122.490 E3.43579
G1 X143.490 Y129.221 E3.54763
G1 X143.490 Y127.658 E3.57084
G1 X146.080 Y122.490 E3.65671
G1 X145.297 Y122.490 E3.66835
G1 X143.490 Y126.096 E3.72826
G1 X143.490 Y124.534 E3.75147
G1 X144.514 Y122.490 E3.78543
G1 X143.731 Y122.490 E3.79706
G1 X143.490 Y122.972 E3.80507
G1 F1500.000 E1.80507
G92 E0
G1 X143.490 Y146.405 F10800.000
G1 E2.00000 F1500.000
G1 X143.755 Y145.877 E2.00878 F720.000
G1 X144.338 Y146.275 E2.01927
G1 X143.490 Y147.968 E2.04739
G1 X143.490 Y149.530 E2.07060
G1 X144.978 Y146.560 E2.11994
G1 X145.619 Y146.845 E2.13035
G1 X143.490 Y151.092 E2.20092
G1 X143.490 Y152.654 E2.22413
G1 X146.279 Y147.089 E2.31660
G1 X146.987 Y147.239 E2.32735
G1 X143.844 Y153.510 E2.43154
G1 X144.627 Y153.510 E2.44317
G1 X147.695 Y147.390 E2.54487
G1 X148.445 Y147.456 E2.55605
G1 X145.410 Y153.510 E2.65665
G1 X146.193 Y153.510 E2.66828
G1 X149.228 Y147.456 E2.76888
G1 X150.013 Y147.452 E2.78054
G1 X146.976 Y153.510 E2.88120
G1 X147.759 Y153.510 E2.89283
G1 X150.889 Y147.265 E2.99659
G1 X151.765 Y147.079 E3.00990
G1 X148.542 Y153.510 E3.11675
G1 X149.325 Y153.510 E3.12838
G1 X152.747 Y146.682 E3.24183
G1 X153.755 Y146.233 E3.25823
G1 X150.108 Y153.510 E3.37914
G1 X150.891 Y153.510 E3.39077
G1 X154.510 Y146.290 E3.51075
G1 X154.510 Y147.852 E3.53395
G1 X151.674 Y153.510 E3.62797
G1 X152.457 Y153.510 E3.63960
G1 X154.510 Y149.414 E3.70766
G1 X154.510 Y150.976 E3.73087
G1 X153.240 Y153.510 E3.77297
G1 X154.023 Y153.510 E3.78460
G1 X154.510 Y152.538 E3.80074
M104 S230 ; set temperature
M140 S105 ; set bed temperature
M204 S800
G1 F1500.000 E1.80074
G92 E0
G1 Z0.600 F10800.000
G1 X151.336 Y139.772 F10800.000
G1 E2.00000 F1500.000
M204 S800
G1 X150.966 Y140.183 E2.00785 F2228.853
G1 X150.469 Y140.545 E2.01656
G1 X149.908 Y140.794 E2.02528
G1 X149.307 Y140.922 E2.03399
G1 X148.693 Y140.922 E2.04271
G1 X148.092 Y140.794 E2.05142
G1 X147.531 Y140.545 E2.06014
G1 X147.034 Y140.183 E2.06885
G1 X146.621 Y139.725 E2.07761
G1 X146.310 Y139.176 E2.08655
G1 X146.126 Y138.611 E2.09499
G1 X146.062 Y138.000 E2.10371
G1 X146.126 Y137.389 E2.11242
G1 X146.316 Y136.805 E2.12114
G1 X146.623 Y136.273 E2.12985
G1 X147.034 Y135.817 E2.13857
G1 X147.531 Y135.455 E2.14728
G1 X148.092 Y135.206 E2.15599
G1 X148.693 Y135.078 E2.16471
G1 X149.307 Y135.078 E2.17342
G1 X149.908 Y135.206 E2.18214
M204 S800
M204 S800
G1 X150.469 Y135.455 E2.19085 F2228.853
G1 X150.966 Y135.817 E2.19957
G1 X151.377 Y136.273 E2.20828
G1 X151.684 Y136.805 E2.21700
G1 X151.874 Y137.389 E2.22571
G1 X151.938 Y138.000 E2.23443
G1 X151.874 Y138.611 E2.24314
G1 X151.684 Y139.195 E2.25186
G1 X151.371 Y139.733 E2.26069
M204 S800
G1 X151.088 Y139.549 F10800.000
M204 S800
G1 X150.741 Y139.934 E2.26804 F2228.853
G1 X150.301 Y140.253 E2.27576
G1 X149.804 Y140.475 E2.28348
G1 X149.272 Y140.588 E2.29119
G1 X148.728 Y140.588 E2.29891
G1 X148.196 Y140.475 E2.30663
G1 X147.699 Y140.253 E2.31435
G1 X147.259 Y139.934 E2.32207
G1 X146.894 Y139.528 E2.32981
G1 X146.617 Y139.041 E2.33776
G1 X146.455 Y138.541 E2.34521
G1 X146.398 Y138.000 E2.35293
G1 X146.455 Y137.459 E2.36065
G1 X146.623 Y136.942 E2.36837
G1 X146.895 Y136.471 E2.37609
G1 X147.259 Y136.066 E2.38380
G1 X147.699 Y135.747 E2.39152
G1 X148.196 Y135.525 E2.39924
G1 X148.728 Y135.412 E2.40696
M204 S800
M204 S800
G1 X149.272 Y135.412 E2.41467 F2228.853
G1 X149.804 Y135.525 E2.42239
G1 X150.301 Y135.747 E2.43011
G1 X150.741 Y136.066 E2.43783
G1 X151.105 Y136.471 E2.44555
G1 X151.377 Y136.942 E2.45326
G1 X151.545 Y137.459 E2.46098
G1 X151.602 Y138.000 E2.46870
G1 X151.545 Y138.541 E2.47642
