; generated by Slic3r 1.1.7 on 2015-05-03 at 20:08:37

; perimeters extrusion width = 0.33mm
; infill extrusion width = 0.50mm
; solid infill extrusion width = 0.38mm
; top infill extrusion width = 0.22mm

G21 ; set units to millimeters
M107
M190 S115 ; wait for bed temperature to be reached
M104 S240 ; set temperature
G28 ; home all axes
M203 X192 Y208 Z3 ; Speed limits to minimize skipped steps when moving really fast courtesy of forum.lulzbot.com user 1013
M109 S240 ; wait for temperature to be reached
G90 ; use absolute coordinates
G92 E0
M82 ; use absolute distances for extrusion
M204 S200
G1 F1500.000 E-2.00000
G92 E0
G1 Z0.300 F10800.000
G1 X138.493 Y127.414 F10800.000
G1 E2.00000 F1500.000
G1 X139.570 Y126.444 E2.02878 F720.000
G1 X140.923 Y125.461 E2.06199
G1 X142.179 Y124.736 E2.09078
G1 X143.707 Y124.056 E2.12398
G1 X145.086 Y123.607 E2.15277
G1 X146.722 Y123.260 E2.18598
G1 X148.164 Y123.108 E2.21477
G1 X149.836 Y123.108 E2.24797
G1 X151.278 Y123.260 E2.27676
G1 X152.914 Y123.607 E2.30997 F720.000
G1 X154.293 Y124.056 E2.33875
G1 X155.821 Y124.736 E2.37196
G1 X157.077 Y125.461 E2.40075
G1 X158.430 Y126.444 E2.43395
G1 X159.507 Y127.414 E2.46274
G1 X160.626 Y128.657 E2.49594
G1 X161.479 Y129.830 E2.52473
G1 X162.315 Y131.278 E2.55794
G1 X162.905 Y132.603 E2.58673
G1 X163.421 Y134.194 E2.61993
G1 X163.723 Y135.612 E2.64872
G1 X163.898 Y137.275 E2.68193
G1 X163.898 Y138.725 E2.71071
G1 X163.723 Y140.388 E2.74392
G1 X163.421 Y141.807 E2.77271
G1 X162.905 Y143.397 E2.80591
G1 X162.315 Y144.722 E2.83470
G1 X161.479 Y146.170 E2.86791
G1 X160.626 Y147.343 E2.89670
G1 X159.507 Y148.586 E2.92990
G1 X158.430 Y149.556 E2.95869
G1 X157.077 Y150.539 E2.99189
G1 X155.821 Y151.264 E3.02068
G1 X154.293 Y151.944 E3.05389
G1 X152.914 Y152.393 E3.08268
G1 X151.278 Y152.740 E3.11588
G1 X149.836 Y152.892 E3.14467
G1 X148.164 Y152.892 E3.17787
G1 X146.722 Y152.740 E3.20666
G1 X145.086 Y152.393 E3.23987
G1 X143.707 Y151.944 E3.26866
G1 X142.179 Y151.264 E3.30186
G1 X140.923 Y150.539 E3.33065
G1 X140.679 Y150.362 E3.33664
G1 X139.570 Y149.556 E3.36386
G1 X138.493 Y148.586 E3.39264
G1 X137.374 Y147.343 E3.42585
G1 X136.521 Y146.170 E3.45464
G1 X135.685 Y144.722 E3.48784
G1 X135.095 Y143.397 E3.51663
G1 X134.579 Y141.807 E3.54984
G1 X134.277 Y140.388 E3.57862
G1 X134.102 Y138.725 E3.61183
G1 X134.102 Y137.275 E3.64062
G1 X134.277 Y135.612 E3.67382
G1 X134.579 Y134.194 E3.70261
G1 X135.095 Y132.603 E3.73582
G1 X135.685 Y131.278 E3.76460
G1 X136.521 Y129.830 E3.79781
G1 X137.374 Y128.657 E3.82660
G1 X138.458 Y127.453 E3.85876
G1 X138.840 Y127.727 F10800.000
G1 X139.913 Y126.773 E3.88726 F720.000
G1 X141.198 Y125.839 E3.91880
G1 X142.369 Y125.163 E3.94565
G1 X143.897 Y124.483 E3.97885
G1 X145.183 Y124.065 E4.00570
G1 X146.819 Y123.717 E4.03891
G1 X148.164 Y123.576 E4.06575
G1 X149.836 Y123.576 E4.09896
G1 X151.181 Y123.717 E4.12580
G1 X152.817 Y124.065 E4.15901 F720.000
G1 X154.103 Y124.483 E4.18586
G1 X155.631 Y125.163 E4.21906
G1 X156.802 Y125.839 E4.24591
G1 X158.155 Y126.822 E4.27911
G1 X159.160 Y127.727 E4.30596
G1 X160.279 Y128.970 E4.33916
G1 X161.073 Y130.064 E4.36601
G1 X161.910 Y131.512 E4.39922
G1 X162.460 Y132.747 E4.42606
G1 X162.976 Y134.338 E4.45927
G1 X163.258 Y135.661 E4.48612
G1 X163.432 Y137.324 E4.51932
G1 X163.432 Y138.676 E4.54617
G1 X163.258 Y140.339 E4.57937
G1 X162.976 Y141.662 E4.60622
G1 X162.460 Y143.253 E4.63942
G1 X161.910 Y144.488 E4.66627
G1 X161.073 Y145.936 E4.69948
G1 X160.279 Y147.030 E4.72632
G1 X159.160 Y148.273 E4.75953
G1 X158.155 Y149.178 E4.78637
G1 X156.802 Y150.161 E4.81958
G1 X155.631 Y150.837 E4.84642
G1 X154.103 Y151.517 E4.87963
G1 X152.817 Y151.935 E4.90648
G1 X151.181 Y152.283 E4.93968
G1 X149.836 Y152.424 E4.96653
G1 X148.164 Y152.424 E4.99973
G1 X146.819 Y152.283 E5.02658
G1 X145.183 Y151.935 E5.05979
G1 X143.897 Y151.517 E5.08663
G1 X142.369 Y150.837 E5.11984
G1 X141.198 Y150.161 E5.14668
G1 X139.845 Y149.178 E5.17989
G1 X138.840 Y148.273 E5.20673
G1 X137.721 Y147.030 E5.23994
G1 X136.927 Y145.936 E5.26679
G1 X136.090 Y144.488 E5.29999
G1 X135.540 Y143.253 E5.32684
G1 X135.024 Y141.662 E5.36005
G1 X134.742 Y140.339 E5.38689
G1 X134.568 Y138.676 E5.42010
G1 X134.568 Y137.324 E5.44694
G1 X134.742 Y135.661 E5.48015
G1 X135.024 Y134.338 E5.50699
G1 X135.540 Y132.747 E5.54020
G1 X136.090 Y131.512 E5.56705
G1 X136.927 Y130.064 E5.60025
G1 X137.721 Y128.970 E5.62710
G1 X138.805 Y127.766 E5.65926
G1 F1500.000 E3.65926
G92 E0
G1 X152.474 Y141.859 F10800.000
G1 E2.00000 F1500.000
G1 X151.596 Y142.497 E2.02155 F960.000
G1 X150.604 Y142.938 E2.04310
G1 X149.543 Y143.164 E2.06465
G1 X148.457 Y143.164 E2.08620
G1 X147.396 Y142.938 E2.10776
G1 X146.404 Y142.497 E2.12931
G1 X145.526 Y141.859 E2.15086
G1 X144.808 Y141.061 E2.17216
G1 X144.257 Y140.113 E2.19392
G1 X143.921 Y139.080 E2.21551
G1 X143.808 Y137.998 E2.23709
G1 X143.926 Y136.907 E2.25889
G1 X144.257 Y135.888 E2.28015
G1 X144.799 Y134.948 E2.30171
G1 X145.526 Y134.141 E2.32326
G1 X146.404 Y133.503 E2.34481
G1 X147.396 Y133.062 E2.36636
G1 X148.457 Y132.836 E2.38791
G1 X149.543 Y132.836 E2.40946
G1 X150.604 Y133.062 E2.43101
G1 X151.596 Y133.503 E2.45256 F960.000
G1 X152.474 Y134.141 E2.47411
G1 X153.201 Y134.948 E2.49567
G1 X153.743 Y135.888 E2.51722
G1 X154.079 Y136.920 E2.53877
G1 X154.192 Y138.000 E2.56032
G1 X154.079 Y139.080 E2.58187
G1 X153.743 Y140.112 E2.60342
G1 X153.201 Y141.052 E2.62497
G1 X152.509 Y141.820 E2.64548
G1 X152.159 Y141.509 F10800.000
G1 X151.361 Y142.089 E2.66508 F960.000
G1 X150.459 Y142.491 E2.68468
G1 X149.494 Y142.696 E2.70428
G1 X148.506 Y142.696 E2.72388
G1 X147.541 Y142.491 E2.74347
G1 X146.639 Y142.089 E2.76307
G1 X145.841 Y141.509 E2.78267
G1 X145.188 Y140.784 E2.80203
G1 X144.687 Y139.921 E2.82184
G1 X144.381 Y138.982 E2.84146
G1 X144.278 Y137.999 E2.86108
G1 X144.386 Y137.005 E2.88093
G1 X144.686 Y136.079 E2.90025
G1 X145.180 Y135.225 E2.91985
G1 X145.841 Y134.491 E2.93945
G1 X146.639 Y133.911 E2.95905
G1 X147.541 Y133.509 E2.97865
G1 X148.506 Y133.304 E2.99825
G1 X149.494 Y133.304 E3.01785 F960.000
G1 X150.459 Y133.509 E3.03744
G1 X151.361 Y133.911 E3.05704
G1 X152.159 Y134.491 E3.07664
G1 X152.820 Y135.225 E3.09624
G1 X153.314 Y136.079 E3.11584
G1 X153.619 Y137.018 E3.13544
G1 X153.722 Y138.000 E3.15504
G1 X153.619 Y138.982 E3.17464
G1 X153.314 Y139.921 E3.19423
G1 X152.820 Y140.775 E3.21383
G1 X152.195 Y141.470 E3.23239
G1 X151.845 Y141.159 F10800.000
G1 X151.126 Y141.682 E3.25003 F720.000
G1 X150.314 Y142.043 E3.26768
G1 X149.444 Y142.228 E3.28533
G1 X148.556 Y142.228 E3.30297
G1 X147.686 Y142.043 E3.32062
G1 X146.874 Y141.682 E3.33827
G1 X146.155 Y141.159 E3.35591
G1 X145.568 Y140.507 E3.37333
G1 X145.116 Y139.730 E3.39119
G1 X144.842 Y138.884 E3.40885
G1 X144.749 Y138.000 E3.42650
G1 X144.846 Y137.104 E3.44439
G1 X145.116 Y136.271 E3.46178
G1 X145.561 Y135.501 E3.47943
G1 X146.155 Y134.841 E3.49707
G1 X146.874 Y134.318 E3.51472
G1 X147.686 Y133.957 E3.53236
G1 X148.556 Y133.772 E3.55001
G1 X149.444 Y133.772 E3.56766
G1 X150.314 Y133.957 E3.58530
G1 X151.126 Y134.318 E3.60295 F720.000
G1 X151.845 Y134.841 E3.62060
G1 X152.439 Y135.501 E3.63824
G1 X152.884 Y136.271 E3.65589
G1 X153.158 Y137.116 E3.67353
G1 X153.251 Y138.000 E3.69118
G1 X153.158 Y138.884 E3.70883
G1 X152.884 Y139.729 E3.72647
G1 X152.439 Y140.499 E3.74412
G1 X151.880 Y141.120 E3.76072
G1 F1500.000 E1.76072
G92 E0
G1 X150.375 Y133.612 F10800.000
G1 X153.339 Y143.216 F10800.000
G1 E2.00000 F1500.000
G1 X152.404 Y143.896 E2.02295 F960.000
G1 X151.104 Y144.475 E2.05121
G1 X149.712 Y144.771 E2.07947
G1 X148.288 Y144.771 E2.10772
G1 X146.896 Y144.475 E2.13598
G1 X145.596 Y143.896 E2.16424
G1 X145.453 Y143.792 E2.16775
G1 X144.445 Y143.059 E2.19250
G1 X143.492 Y142.002 E2.22075
G1 X142.781 Y140.769 E2.24901
G1 X142.341 Y139.415 E2.27727
G1 X142.192 Y138.000 E2.30553
G1 X142.341 Y136.585 E2.33378
G1 X142.781 Y135.231 E2.36204
G1 X143.492 Y133.998 E2.39030
G1 X144.445 Y132.941 E2.41856
G1 X145.596 Y132.104 E2.44681
G1 X146.896 Y131.525 E2.47507
G1 X148.288 Y131.229 E2.50333
G1 X149.712 Y131.229 E2.53158
G1 X151.104 Y131.525 E2.55984
G1 X152.404 Y132.104 E2.58810 F960.000
G1 X153.555 Y132.941 E2.61636
G1 X154.508 Y133.998 E2.64462
G1 X155.219 Y135.231 E2.67287
G1 X155.659 Y136.585 E2.70113
G1 X155.808 Y138.000 E2.72939
G1 X155.659 Y139.415 E2.75764
G1 X155.219 Y140.769 E2.78590
G1 X154.508 Y142.002 E2.81416
G1 X153.555 Y143.059 E2.84242
G1 X153.382 Y143.185 E2.84668
G1 X153.614 Y143.595 F10800.000
G1 X152.639 Y144.303 E2.87061 F960.000
G1 X151.249 Y144.922 E2.90082
G1 X149.761 Y145.238 E2.93103
G1 X148.239 Y145.238 E2.96124
G1 X146.751 Y144.922 E2.99145
G1 X145.361 Y144.303 E3.02166
G1 X144.130 Y143.409 E3.05187
G1 X143.112 Y142.278 E3.08208
G1 X142.351 Y140.960 E3.11229
G1 X141.881 Y139.513 E3.14250
G1 X141.722 Y138.000 E3.17271
G1 X141.881 Y136.487 E3.20292
G1 X142.351 Y135.040 E3.23313
G1 X143.112 Y133.722 E3.26334
G1 X144.130 Y132.591 E3.29355
G1 X145.361 Y131.697 E3.32376
G1 X146.751 Y131.078 E3.35397
G1 X148.239 Y130.762 E3.38418
G1 X149.761 Y130.762 E3.41439 F960.000
G1 X151.249 Y131.078 E3.44460
G1 X152.639 Y131.697 E3.47481
G1 X153.870 Y132.591 E3.50502
G1 X154.888 Y133.722 E3.53523
G1 X155.649 Y135.040 E3.56544
G1 X156.119 Y136.487 E3.59565
G1 X156.278 Y138.000 E3.62586
G1 X156.119 Y139.513 E3.65606
G1 X155.649 Y140.960 E3.68627
G1 X154.888 Y142.278 E3.71648
G1 X153.870 Y143.409 E3.74669
G1 X153.657 Y143.564 E3.75193
G1 X153.889 Y143.973 F10800.000
G1 X152.874 Y144.711 E3.77684 F720.000
G1 X151.394 Y145.369 E3.80900
G1 X149.810 Y145.706 E3.84116
G1 X148.190 Y145.706 E3.87333
G1 X146.606 Y145.369 E3.90549
G1 X145.126 Y144.710 E3.93765
G1 X144.903 Y144.549 E3.94312
G1 X143.815 Y143.758 E3.96981
G1 X142.731 Y142.555 E4.00197
G1 X141.921 Y141.152 E4.03414
G1 X141.421 Y139.611 E4.06630
G1 X141.251 Y138.000 E4.09846
G1 X141.421 Y136.389 E4.13062
G1 X141.921 Y134.848 E4.16279
G1 X142.731 Y133.445 E4.19495
G1 X143.815 Y132.242 E4.22711
G1 X145.126 Y131.290 E4.25927
G1 X146.606 Y130.631 E4.29144
G1 X148.190 Y130.294 E4.32360
G1 X149.866 Y130.306 E4.35687
G1 X151.394 Y130.631 E4.38790 F720.000
G1 X152.874 Y131.290 E4.42006
G1 X154.185 Y132.242 E4.45222
G1 X155.269 Y133.445 E4.48438
G1 X156.079 Y134.848 E4.51655
G1 X156.579 Y136.389 E4.54871
G1 X156.749 Y138.000 E4.58087
G1 X156.579 Y139.611 E4.61303
G1 X156.079 Y141.152 E4.64520
G1 X155.269 Y142.555 E4.67736
G1 X154.185 Y143.758 E4.70952
G1 X153.932 Y143.942 E4.71574
G1 F1500.000 E2.71574
G92 E0
G1 X150.163 Y130.492 F10800.000
G1 X150.504 Y131.724 F10800.000
G1 E2.00000 F1500.000
G1 X152.667 Y133.887 E2.06073 F960.000
G1 X152.743 Y133.963 F10800.000
G1 X155.304 Y136.524 E2.13263 F960.000
G1 X155.415 Y137.311 E2.14841
G1 X154.121 Y136.017 E2.18474
G1 X154.978 Y135.522 F10800.000
G1 X151.514 Y132.057 E2.28202 F960.000
G1 X150.986 Y132.882 F10800.000
G1 X149.652 Y131.549 E2.31947 F960.000
G1 X148.975 Y131.549 E2.33290
G1 X150.043 Y132.616 E2.36288
G1 X149.268 Y132.517 E2.37841
G1 X148.303 Y131.553 E2.40550
G1 X147.745 Y131.671 E2.41682
G1 X148.591 Y132.517 E2.44057
G1 X148.004 Y132.606 E2.45237
G1 X147.187 Y131.790 E2.47530
G1 X146.688 Y131.967 E2.48581
G1 X147.446 Y132.725 E2.50708
G1 X146.954 Y132.909 E2.51752
G1 X146.220 Y132.176 E2.53812
G1 X145.753 Y132.385 E2.54828
G1 X146.486 Y133.118 E2.56886
G1 X146.054 Y133.363 E2.57871
G1 X145.361 Y132.670 E2.59818
G1 X144.969 Y132.954 E2.60780
G1 X145.662 Y133.648 E2.62727
G1 X145.278 Y133.940 E2.63685
G1 X144.603 Y133.264 E2.65582
G1 X144.272 Y133.610 E2.66532
G1 X144.957 Y134.296 E2.68457
G1 X144.637 Y134.652 E2.69408
G1 X143.951 Y133.966 E2.71334
G1 X143.658 Y134.349 E2.72292
G1 X144.367 Y135.059 E2.74283
G1 X144.120 Y135.487 E2.75267
G1 X143.411 Y134.778 E2.77257
G1 X143.163 Y135.207 E2.78241
G1 X143.902 Y135.947 E2.80317
G1 X143.736 Y136.457 E2.81382
G1 X142.968 Y135.688 E2.83541
G1 X142.802 Y136.199 E2.84607
G1 X143.595 Y136.993 E2.86835
G1 X143.529 Y137.603 E2.88054
G1 X142.647 Y136.721 E2.90531
G1 X142.583 Y137.333 E2.91753
G1 X143.515 Y138.265 E2.94369
G1 X143.594 Y139.021 E2.95878
G1 X142.519 Y137.946 E2.98898
G1 X142.585 Y138.689 E3.00380
G1 X143.879 Y139.983 E3.04012
G1 X143.022 Y140.478 F10800.000
G1 X146.486 Y143.943 E3.13740 F960.000
G1 X147.014 Y143.118 F10800.000
G1 X148.348 Y144.451 E3.17485 F960.000
G1 X149.025 Y144.451 E3.18829
G1 X147.957 Y143.384 E3.21827
G1 X148.732 Y143.483 E3.23380
G1 X149.697 Y144.447 E3.26088
G1 X150.255 Y144.329 E3.27221
G1 X149.409 Y143.483 E3.29596
G1 X149.996 Y143.394 E3.30775
G1 X150.813 Y144.210 E3.33068
G1 X151.312 Y144.033 E3.34120
G1 X150.554 Y143.275 E3.36247
G1 X151.046 Y143.091 E3.37291
G1 X151.780 Y143.824 E3.39350
G1 X152.247 Y143.615 E3.40367
G1 X151.514 Y142.882 E3.42425
G1 X151.946 Y142.637 E3.43410
G1 X152.639 Y143.330 E3.45357
G1 X153.031 Y143.046 E3.46318
G1 X152.338 Y142.352 E3.48265
G1 X152.722 Y142.060 E3.49224
G1 X153.397 Y142.736 E3.51120
G1 X153.728 Y142.390 E3.52070
G1 X153.043 Y141.704 E3.53996
G1 X153.363 Y141.348 E3.54947
G1 X154.049 Y142.034 E3.56873
G1 X154.342 Y141.651 E3.57831
G1 X153.633 Y140.941 E3.59822
G1 X153.880 Y140.513 E3.60805
G1 X154.589 Y141.222 E3.62796
G1 X154.837 Y140.793 E3.63779
G1 X154.098 Y140.053 E3.65855
G1 X154.264 Y139.543 E3.66921
G1 X155.032 Y140.312 E3.69079
G1 X155.198 Y139.801 E3.70145
G1 X154.407 Y139.010 E3.72367
G1 X154.471 Y138.397 E3.73589
G1 X155.353 Y139.279 E3.76064
G1 X155.417 Y138.667 E3.77286
G1 X154.485 Y137.735 E3.79902
G1 X154.406 Y136.979 E3.81411
G1 X155.481 Y138.054 E3.84431
G1 X153.597 Y133.464 F10800.000
G1 X153.237 Y133.104 E3.85444 F960.000
G1 X147.347 Y131.240 F10800.000
G1 X142.079 Y138.703 F10800.000
G1 X142.696 Y139.476 F10800.000
G1 X147.496 Y144.276 E3.98921 F960.000
G1 X144.763 Y142.896 F10800.000
G1 X144.403 Y142.536 E3.99933 F960.000
M104 S230 ; set temperature
M140 S105 ; set bed temperature
M204 S800
G1 F1500.000 E1.99933
G92 E0
G1 Z0.600 F10800.000
G1 X142.332 Y139.988 F10800.000
G1 X150.050 Y144.888 F10800.000
G1 X152.384 Y141.902 F10800.000
G1 E2.00000 F1500.000
M204 S800
G1 X151.622 Y142.456 E2.01337 F1322.999
G1 X150.604 Y142.920 E2.02924
G1 X149.541 Y143.146 E2.04466
G1 X148.459 Y143.146 E2.06001
G1 X147.401 Y142.921 E2.07536
G1 X146.413 Y142.481 E2.09070
G1 X145.538 Y141.845 E2.10605
G1 X144.839 Y141.069 E2.12086
G1 X144.274 Y140.109 E2.13667
G1 X143.939 Y139.076 E2.15208
G1 X143.826 Y138.000 E2.16743
G1 X143.939 Y136.924 E2.18278
G1 X144.273 Y135.895 E2.19813
G1 X144.814 Y134.959 E2.21347
G1 X145.538 Y134.155 E2.22882
G1 X146.413 Y133.519 E2.24417
G1 X147.401 Y133.079 E2.25951
G1 X148.459 Y132.854 E2.27486
G1 X149.541 Y132.854 E2.29021
G1 X150.599 Y133.079 E2.30556
M204 S800
M204 S800
G1 X151.587 Y133.519 E2.32090 F1322.999
G1 X152.462 Y134.155 E2.33625
G1 X153.186 Y134.959 E2.35160
G1 X153.727 Y135.895 E2.36695
G1 X154.061 Y136.924 E2.38229
G1 X154.174 Y138.000 E2.39764
G1 X154.061 Y139.076 E2.41299
G1 X153.727 Y140.105 E2.42833
G1 X153.186 Y141.041 E2.44368
G1 X152.427 Y141.871 E2.45964
M204 S800
G1 X152.188 Y141.632 F10800.000
M204 S800
G1 X151.453 Y142.166 E2.47253 F1322.999
G1 X150.499 Y142.601 E2.48741
G1 X149.506 Y142.812 E2.50181
G1 X148.494 Y142.812 E2.51616
G1 X147.505 Y142.601 E2.53051
G1 X146.581 Y142.190 E2.54486
G1 X145.763 Y141.595 E2.55921
G1 X145.110 Y140.871 E2.57305
G1 X144.581 Y139.971 E2.58785
G1 X144.268 Y139.006 E2.60225
G1 X144.162 Y138.000 E2.61660
G1 X144.268 Y136.994 E2.63095
G1 X144.580 Y136.032 E2.64530
G1 X145.086 Y135.156 E2.65965
G1 X145.763 Y134.405 E2.67400
G1 X146.581 Y133.810 E2.68835
G1 X147.505 Y133.399 E2.70270
G1 X148.494 Y133.188 E2.71705
M204 S800
M204 S800
G1 X149.506 Y133.188 E2.73140 F1322.999
G1 X150.495 Y133.399 E2.74575
G1 X151.419 Y133.810 E2.76011
G1 X152.237 Y134.405 E2.77446
G1 X152.914 Y135.156 E2.78881
G1 X153.420 Y136.032 E2.80316
G1 X153.732 Y136.994 E2.81751
G1 X153.838 Y138.000 E2.83186
G1 X153.732 Y139.006 E2.84621
G1 X153.420 Y139.968 E2.86056
G1 X152.914 Y140.844 E2.87491
G1 X152.230 Y141.601 E2.88938
M204 S800
G1 X151.991 Y141.361 F10800.000
M204 S800
G1 X151.283 Y141.875 E2.90180 F1322.999
G1 X150.393 Y142.281 E2.91567
