; generated by Slic3r 1.1.7 on 2015-05-14 at 13:23:08

; perimeters extrusion width = 0.33mm
; infill extrusion width = 0.50mm
; solid infill extrusion width = 0.38mm
; top infill extrusion width = 0.22mm

G21 ; set units to millimeters
M107
M190 S115 ; wait for bed temperature to be reached
M104 S240 ; set temperature
G28 ; home all axes
M203 X192 Y208 Z3 ; Speed limits to minimize skipped steps when moving really fast courtesy of forum.lulzbot.com user 1013
M109 S240 ; wait for temperature to be reached
G90 ; use absolute coordinates
G92 E0
M82 ; use absolute distances for extrusion
M204 S200
G1 F1500.000 E-2.00000
G92 E0
G1 Z0.100 F10800.000
G1 X121.086 Y111.131 F10800.000
G1 E2.00000 F1500.000
G1 X122.850 Y109.577 E2.01591 F720.000
G1 X125.031 Y108.700 E2.03183
G1 X126.500 Y108.543 E2.04183
G1 X171.500 Y108.543 E2.34648
G1 X173.817 Y108.940 E2.36239
G1 X175.869 Y110.086 E2.37831 F720.000
G1 X177.423 Y111.850 E2.39422
G1 X178.300 Y114.031 E2.41013
G1 X178.457 Y115.500 E2.42013
G1 X178.457 Y160.500 E2.72478
G1 X178.060 Y162.817 E2.74070
G1 X176.914 Y164.869 E2.75661
G1 X175.150 Y166.423 E2.77252
G1 X172.969 Y167.300 E2.78844
G1 X171.500 Y167.457 E2.79844
G1 X126.500 Y167.457 E3.10309
G1 X124.183 Y167.060 E3.11900
G1 X122.131 Y165.914 E3.13492
G1 X120.577 Y164.150 E3.15083
G1 X119.700 Y161.969 E3.16674
G1 X119.543 Y160.500 E3.17675
G1 X119.543 Y115.500 E3.48139
G1 X119.940 Y113.183 E3.49731
G1 X121.060 Y111.177 E3.51287
G1 X121.517 Y111.382 F10800.000
G1 X121.560 Y111.308 E3.51345 F720.000
G1 X123.308 Y109.862 E3.52880
G1 X126.500 Y109.021 E3.55115
G1 X171.500 Y109.021 E3.85580
G1 X173.733 Y109.418 E3.87115
G1 X175.692 Y110.560 E3.88650 F720.000
G1 X177.138 Y112.308 E3.90185
G1 X177.979 Y115.500 E3.92420
G1 X177.979 Y160.500 E4.22885
G1 X177.582 Y162.733 E4.24420
G1 X176.440 Y164.692 E4.25956
G1 X174.692 Y166.138 E4.27491
G1 X171.500 Y166.979 E4.29726
G1 X126.500 Y166.979 E4.60190
G1 X124.267 Y166.582 E4.61726
G1 X122.308 Y165.440 E4.63261
G1 X120.862 Y163.692 E4.64796
G1 X120.021 Y160.500 E4.67031
G1 X120.021 Y115.500 E4.97496
G1 X120.418 Y113.267 E4.99031
G1 X121.491 Y111.427 E5.00473
G1 F1500.000 E3.00473
G92 E0
G1 X154.129 Y136.929 F10800.000
G1 E2.00000 F1500.000
G1 X143.871 Y136.929 E2.06944 F960.000
G1 X143.871 Y121.471 E2.17408
G1 X154.129 Y121.471 E2.24352
G1 X154.129 Y136.876 E2.34781
G1 X153.650 Y136.450 F10800.000
G1 X144.350 Y136.450 E2.41077 F768.000
G1 X144.350 Y121.950 E2.50894
G1 X153.650 Y121.950 E2.57190
G1 X153.650 Y136.398 E2.66971
G1 X153.650 Y136.800 F10800.000
G1 X164.529 Y139.071 F10800.000
G1 X164.529 Y154.529 E2.77435 F960.000
G1 X133.471 Y154.529 E2.98460
G1 X133.471 Y139.071 E3.08925
G1 X164.476 Y139.071 E3.29915
G1 X164.050 Y139.550 F10800.000
G1 X164.050 Y154.050 E3.39731 F768.000
G1 X154.750 Y154.050 E3.46027
G1 X154.750 Y139.550 E3.55844
G1 X163.998 Y139.550 E3.62104
G1 X163.875 Y139.853 F10800.000
G1 F1500.000 E1.62104
G92 E0
G1 X153.650 Y139.550 F10800.000
G1 E2.00000 F1500.000
G1 X153.650 Y154.050 E2.09816 F768.000
G1 X144.350 Y154.050 E2.16112
G1 X144.350 Y139.550 E2.25929
G1 X153.598 Y139.550 E2.32189
G1 X153.475 Y139.853 F10800.000
G1 F1500.000 E0.32189
G92 E0
G1 X143.250 Y139.550 F10800.000
G1 E2.00000 F1500.000
G1 X143.250 Y154.050 E2.09816 F768.000
G1 X133.950 Y154.050 E2.16112
G1 X133.950 Y139.550 E2.25929
G1 X143.198 Y139.550 E2.32189
G1 X143.600 Y139.550 F10800.000
G1 F1500.000 E0.32189
G92 E0
G1 X127.229 Y159.771 F10800.000
G1 E2.00000 F1500.000
G1 X127.229 Y116.229 E2.29478 F960.000
G1 X170.771 Y116.229 E2.58957
G1 X170.771 Y159.771 E2.88435
G1 X127.281 Y159.771 E3.17878
G1 X126.750 Y160.250 F10800.000
G1 X126.750 Y115.750 E3.48004 F768.000
G1 X171.250 Y115.750 E3.78130
G1 X171.250 Y160.250 E4.08257
G1 X126.803 Y160.250 E4.38348
G1 X126.925 Y159.947 F10800.000
G1 X127.595 Y159.445 F10800.000
G1 X127.555 Y159.405 E4.38386 F960.000
G1 X127.555 Y158.724 E4.38846
G1 X128.276 Y159.445 E4.39536
G1 X128.956 Y159.445 E4.39996
G1 X127.555 Y158.044 E4.41337
G1 X127.555 Y157.364 E4.41797
G1 X129.636 Y159.445 E4.43789
G1 X130.316 Y159.445 E4.44250
G1 X127.555 Y156.684 E4.46893
G1 X127.555 Y156.004 E4.47353
G1 X130.996 Y159.445 E4.50647
G1 X131.676 Y159.445 E4.51108
G1 X127.555 Y155.324 E4.55053
G1 X127.555 Y154.644 E4.55514
G1 X132.356 Y159.445 E4.60110
G1 X133.037 Y159.445 E4.60571
G1 X127.555 Y153.963 E4.65818
G1 X127.555 Y153.283 E4.66279
G1 X133.717 Y159.445 E4.72178
G1 X134.397 Y159.445 E4.72638
G1 X127.555 Y152.603 E4.79188
G1 X127.555 Y151.923 E4.79649
G1 X135.077 Y159.445 E4.86850
G1 X135.757 Y159.445 E4.87310
G1 X127.555 Y151.243 E4.95163
G1 X127.555 Y150.563 E4.95623
G1 X136.437 Y159.445 E5.04127
G1 X137.117 Y159.445 E5.04587
G1 X127.555 Y149.883 E5.13742
G1 X127.555 Y149.202 E5.14203
G1 X133.145 Y154.791 E5.19554
G1 X133.145 Y154.111 E5.20014
G1 X127.555 Y148.522 E5.25365
G1 X127.555 Y147.842 E5.25826
G1 X133.145 Y153.431 E5.31177
G1 X133.145 Y152.751 E5.31637
G1 X127.555 Y147.162 E5.36988
G1 X127.555 Y146.482 E5.37449
G1 X133.145 Y152.071 E5.42800
G1 X133.145 Y151.391 E5.43260
G1 X127.555 Y145.802 E5.48611
G1 X127.555 Y145.122 E5.49072
G1 X133.145 Y150.711 E5.54423
G1 X133.145 Y150.030 E5.54883
G1 X127.555 Y144.441 E5.60235
G1 X127.555 Y143.761 E5.60695
G1 X133.145 Y149.350 E5.66046
G1 X133.145 Y148.670 E5.66507
G1 X127.555 Y143.081 E5.71858
G1 X127.555 Y142.401 E5.72318
G1 X133.145 Y147.990 E5.77669
G1 X133.145 Y147.310 E5.78130
G1 X127.555 Y141.721 E5.83481
G1 X127.555 Y141.041 E5.83941
G1 X133.145 Y146.630 E5.89292
G1 X133.145 Y145.950 E5.89753
G1 X127.555 Y140.361 E5.95104
G1 X127.555 Y139.680 E5.95564
G1 X133.145 Y145.269 E6.00915
G1 X133.145 Y144.589 E6.01376
G1 X127.555 Y139.000 E6.06727
G1 X127.555 Y138.320 E6.07187
G1 X133.145 Y143.909 E6.12538
G1 X133.145 Y143.229 E6.12999
G1 X127.555 Y137.640 E6.18350
G1 X127.555 Y136.960 E6.18810
G1 X133.145 Y142.549 E6.24161
G1 X133.145 Y141.869 E6.24622
G1 X127.555 Y136.280 E6.29973
G1 X127.555 Y135.599 E6.30433
G1 X133.145 Y141.189 E6.35784
G1 X133.145 Y140.508 E6.36245
G1 X127.555 Y134.919 E6.41596
G1 X127.555 Y134.239 E6.42056
G1 X133.145 Y139.828 E6.47407
G1 X133.145 Y139.148 E6.47868
G1 X127.555 Y133.559 E6.53219
G1 X127.555 Y132.879 E6.53679
G1 X133.421 Y138.745 E6.59295
G1 X134.101 Y138.745 E6.59756
G1 X127.555 Y132.199 E6.66023
G1 X127.555 Y131.519 E6.66483
G1 X134.781 Y138.745 E6.73401
G1 X135.462 Y138.745 E6.73862
G1 X127.555 Y130.838 E6.81431
G1 X127.555 Y130.158 E6.81892
G1 X136.142 Y138.745 E6.90112
G1 X136.822 Y138.745 E6.90573
G1 X127.555 Y129.478 E6.99444
G1 X127.555 Y128.798 E6.99905
G1 X137.502 Y138.745 E7.09428
G1 X138.182 Y138.745 E7.09888
G1 X127.555 Y128.118 E7.20062
G1 X127.555 Y127.438 E7.20523
G1 X138.862 Y138.745 E7.31348
G1 X139.542 Y138.745 E7.31809
G1 X127.555 Y126.758 E7.43285
G1 X127.555 Y126.077 E7.43746
G1 X140.223 Y138.745 E7.55873
G1 X140.903 Y138.745 E7.56334
G1 X127.555 Y125.397 E7.69112
G1 X127.555 Y124.717 E7.69573
G1 X141.583 Y138.745 E7.83003
G1 X142.263 Y138.745 E7.83463
G1 X127.555 Y124.037 E7.97545
G1 X127.555 Y123.357 E7.98005
G1 X142.943 Y138.745 E8.12737
G1 X143.623 Y138.745 E8.13198
G1 X127.555 Y122.677 E8.28581
G1 X127.555 Y121.997 E8.29042
G1 X144.303 Y138.745 E8.45077
G1 X144.984 Y138.745 E8.45537
G1 X127.555 Y121.316 E8.62223
G1 X127.555 Y120.636 E8.62683
G1 X143.545 Y136.625 E8.77992
G1 X143.545 Y135.945 F10800.000
G1 X127.555 Y119.956 E8.93300 F960.000
G1 X127.555 Y119.276 E8.93760
G1 X143.545 Y135.265 E9.09068
G1 X143.545 Y134.585 E9.09529
G1 X127.555 Y118.596 E9.24837
G1 X127.555 Y117.916 E9.25298
G1 X143.545 Y133.905 E9.40606
G1 X143.545 Y133.225 E9.41066
G1 X127.555 Y117.236 E9.56374
G1 X127.575 Y116.575 E9.56822
G1 X143.545 Y132.545 E9.72111
G1 X143.545 Y131.864 E9.72571
G1 X128.236 Y116.555 E9.87228
G1 X128.916 Y116.555 E9.87689
G1 X143.545 Y131.184 E10.01694
G1 X143.545 Y130.504 E10.02155
G1 X129.596 Y116.555 E10.15510
G1 X130.276 Y116.555 E10.15970
G1 X143.545 Y129.824 E10.28674
G1 X143.545 Y129.144 E10.29134
G1 X130.956 Y116.555 E10.41186
G1 X131.636 Y116.555 E10.41647
G1 X143.545 Y128.464 E10.53048
G1 X143.545 Y127.784 E10.53508
G1 X132.316 Y116.555 E10.64258
G1 X132.997 Y116.555 E10.64719
G1 X143.545 Y127.103 E10.74817
G1 X143.545 Y126.423 E10.75278
G1 X133.677 Y116.555 E10.84725
G1 X134.357 Y116.555 E10.85186
G1 X143.545 Y125.743 E10.93982
G1 X143.545 Y125.063 E10.94443
G1 X135.037 Y116.555 E11.02588
G1 X135.717 Y116.555 E11.03048
G1 X143.545 Y124.383 E11.10543
G1 X143.545 Y123.703 E11.11003
G1 X136.397 Y116.555 E11.17846
G1 X137.077 Y116.555 E11.18306
G1 X143.545 Y123.023 E11.24498
G1 X143.545 Y122.342 E11.24958
G1 X137.758 Y116.555 E11.30499
G1 X138.438 Y116.555 E11.30959
G1 X143.545 Y121.662 E11.35849
G1 X143.707 Y121.145 E11.36216
G1 X139.118 Y116.555 E11.40610
G1 X139.798 Y116.555 E11.41070
G1 X144.387 Y121.145 E11.45464
G1 X145.067 Y121.145 E11.45924
G1 X140.478 Y116.555 E11.50318
G1 X141.158 Y116.555 E11.50778
G1 X145.747 Y121.145 E11.55172
G1 X146.428 Y121.145 E11.55632
G1 X141.838 Y116.555 E11.60026
G1 X142.519 Y116.555 E11.60487
G1 X147.108 Y121.145 E11.64880
G1 X147.788 Y121.145 E11.65341
G1 X143.199 Y116.555 E11.69734
G1 X143.879 Y116.555 E11.70195
G1 X148.468 Y121.145 E11.74588
G1 X149.148 Y121.145 E11.75049
G1 X144.559 Y116.555 E11.79443
G1 X145.239 Y116.555 E11.79903
G1 X149.828 Y121.145 E11.84297
G1 X150.508 Y121.145 E11.84757
G1 X145.919 Y116.555 E11.89151
G1 X146.599 Y116.555 E11.89611
G1 X151.189 Y121.145 E11.94005
G1 X151.869 Y121.145 E11.94465
G1 X147.280 Y116.555 E11.98859
G1 X147.960 Y116.555 E11.99319
G1 X152.549 Y121.145 E12.03713
G1 X153.229 Y121.145 E12.04174
G1 X148.640 Y116.555 E12.08567
G1 X149.320 Y116.555 E12.09028
G1 X153.909 Y121.145 E12.13421
G1 X170.405 Y116.555 F10800.000
G1 X170.445 Y116.595 E12.13460 F960.000
G1 X170.445 Y117.276 E12.13920
G1 X169.724 Y116.555 E12.14610
G1 X169.044 Y116.555 E12.15070
G1 X170.445 Y117.956 E12.16411
G1 X170.445 Y118.636 E12.16871
G1 X168.364 Y116.555 E12.18863
G1 X167.684 Y116.555 E12.19323
G1 X170.445 Y119.316 E12.21966
G1 X170.445 Y119.996 E12.22427
G1 X167.004 Y116.555 E12.25721
G1 X166.324 Y116.555 E12.26182
G1 X170.445 Y120.676 E12.30127
G1 X170.445 Y121.356 E12.30587
G1 X165.644 Y116.555 E12.35184
G1 X164.963 Y116.555 E12.35644
G1 X170.445 Y122.037 E12.40892
G1 X170.445 Y122.717 E12.41353
G1 X164.283 Y116.555 E12.47252
G1 X163.603 Y116.555 E12.47712
G1 X170.445 Y123.397 E12.54262
G1 X170.445 Y124.077 E12.54723
G1 X162.923 Y116.555 E12.61924
G1 X162.243 Y116.555 E12.62384
G1 X170.445 Y124.757 E12.70237
G1 X170.445 Y125.437 E12.70697
G1 X161.563 Y116.555 E12.79201
G1 X160.883 Y116.555 E12.79661
G1 X170.445 Y126.117 E12.88816
G1 X170.445 Y126.798 E12.89277
G1 X160.202 Y116.555 E12.99083
G1 X159.522 Y116.555 E12.99543
G1 X170.445 Y127.478 E13.10000
G1 X170.445 Y128.158 E13.10461
G1 X158.842 Y116.555 E13.21569
G1 X158.162 Y116.555 E13.22030
G1 X170.445 Y128.838 E13.33789
G1 X170.445 Y129.518 E13.34250
G1 X157.482 Y116.555 E13.46660
G1 X156.802 Y116.555 E13.47121
G1 X170.445 Y130.198 E13.60183
G1 X170.445 Y130.878 E13.60643
G1 X156.122 Y116.555 E13.74356
G1 X155.441 Y116.555 E13.74817
G1 X170.445 Y131.559 E13.89181
G1 X170.445 Y132.239 E13.89641
G1 X154.761 Y116.555 E14.04657
G1 X154.081 Y116.555 E14.05117
G1 X170.445 Y132.919 E14.20784
G1 X170.445 Y133.599 E14.21244
G1 X153.401 Y116.555 E14.37562
G1 X152.721 Y116.555 E14.38023
G1 X170.445 Y134.279 E14.54992
G1 X170.445 Y134.959 E14.55452
G1 X152.041 Y116.555 E14.73072
G1 X151.361 Y116.555 E14.73533
G1 X170.445 Y135.639 E14.91804
G1 X170.445 Y136.320 E14.92265
G1 X150.680 Y116.555 E15.11187
G1 X150.000 Y116.555 E15.11648
G1 X170.445 Y137.000 E15.31221
G1 X170.445 Y137.680 E15.31682
G1 X154.455 Y121.691 E15.46990
G1 X154.455 Y122.371 E15.47450
G1 X170.445 Y138.360 E15.62759
G1 X170.445 Y139.040 E15.63219
G1 X154.455 Y123.051 E15.78527
G1 X154.455 Y123.731 E15.78988
G1 X170.445 Y139.720 E15.94296
G1 X170.445 Y140.401 E15.94756
G1 X154.455 Y124.411 E16.10065
G1 X154.455 Y125.092 E16.10525
G1 X170.445 Y141.081 E16.25833
G1 X170.445 Y141.761 E16.26294
G1 X154.455 Y125.772 E16.41602
G1 X154.455 Y126.452 E16.42062
G1 X170.445 Y142.441 E16.57371
G1 X170.445 Y143.121 E16.57831
G1 X154.455 Y127.132 E16.73139
G1 X154.455 Y127.812 E16.73600
G1 X170.445 Y143.801 E16.88908
G1 X170.445 Y144.481 E16.89368
G1 X154.455 Y128.492 E17.04677
G1 X154.455 Y129.172 E17.05137
G1 X164.028 Y138.745 E17.14301
G1 X163.347 Y138.745 E17.14762
G1 X154.455 Y129.853 E17.23275
G1 X154.455 Y130.533 E17.23736
G1 X162.667 Y138.745 E17.31598
G1 X161.987 Y138.745 E17.32058
G1 X154.455 Y131.213 E17.39269
G1 X154.455 Y131.893 E17.39730
G1 X161.307 Y138.745 E17.46289
G1 X160.627 Y138.745 E17.46750
G1 X154.455 Y132.573 E17.52658
G1 X154.455 Y133.253 E17.53119
G1 X159.947 Y138.745 E17.58376
G1 X159.267 Y138.745 E17.58837
G1 X154.455 Y133.933 E17.63443
G1 X154.455 Y134.614 E17.63903
G1 X158.586 Y138.745 E17.67858
G1 X157.906 Y138.745 E17.68319
G1 X154.455 Y135.294 E17.71623
G1 X154.455 Y135.974 E17.72083
G1 X157.226 Y138.745 E17.74736
G1 X156.546 Y138.745 E17.75196
G1 X154.455 Y136.654 E17.77198
G1 X154.377 Y137.255 E17.77609
G1 X155.866 Y138.745 E17.79034
G1 X155.186 Y138.745 E17.79495
G1 X153.697 Y137.255 E17.80920
G1 X153.016 Y137.255 E17.81381
G1 X154.506 Y138.745 E17.82806
G1 X153.825 Y138.745 E17.83267
G1 X152.336 Y137.255 E17.84693
G1 X151.656 Y137.255 E17.85153
G1 X153.145 Y138.745 E17.86579
G1 X152.465 Y138.745 E17.87039
G1 X150.976 Y137.255 E17.88465
G1 X150.296 Y137.255 E17.88925
G1 X151.785 Y138.745 E17.90351
G1 X151.105 Y138.745 E17.90811
G1 X149.616 Y137.255 E17.92237
G1 X148.936 Y137.255 E17.92697
G1 X150.425 Y138.745 E17.94123
G1 X149.745 Y138.745 E17.94584
G1 X148.255 Y137.255 E17.96009
G1 X147.575 Y137.255 E17.96470
G1 X149.064 Y138.745 E17.97895
G1 X148.384 Y138.745 E17.98356
G1 X146.895 Y137.255 E17.99782
G1 X146.215 Y137.255 E18.00242
G1 X147.704 Y138.745 E18.01668
G1 X147.024 Y138.745 E18.02128
G1 X145.535 Y137.255 E18.03554
G1 X144.855 Y137.255 E18.04014
G1 X146.344 Y138.745 E18.05440
G1 X145.664 Y138.745 E18.05900
G1 X144.175 Y137.255 E18.07326
G1 X133.200 Y138.800 F10800.000
G1 X127.500 Y142.500 F10800.000
G1 X133.209 Y154.855 F10800.000
G1 X137.798 Y159.445 E18.11720 F960.000
G1 X138.478 Y159.445 E18.12180
G1 X133.889 Y154.855 E18.16574
G1 X134.569 Y154.855 E18.17034
G1 X139.158 Y159.445 E18.21428
G1 X139.838 Y159.445 E18.21888
G1 X135.249 Y154.855 E18.26282
G1 X135.929 Y154.855 E18.26742
G1 X140.518 Y159.445 E18.31136
G1 X141.198 Y159.445 E18.31597
G1 X136.609 Y154.855 E18.35990
G1 X137.289 Y154.855 E18.36451
G1 X141.878 Y159.445 E18.40844
G1 X142.559 Y159.445 E18.41305
G1 X137.970 Y154.855 E18.45698
G1 X138.650 Y154.855 E18.46159
G1 X143.239 Y159.445 E18.50553
G1 X143.919 Y159.445 E18.51013
G1 X139.330 Y154.855 E18.55407
G1 X140.010 Y154.855 E18.55867
G1 X144.599 Y159.445 E18.60261
G1 X145.279 Y159.445 E18.60721
G1 X140.690 Y154.855 E18.65115
G1 X141.370 Y154.855 E18.65575
G1 X145.959 Y159.445 E18.69969
G1 X146.639 Y159.445 E18.70429
G1 X142.050 Y154.855 E18.74823
G1 X142.731 Y154.855 E18.75284
G1 X147.320 Y159.445 E18.79677
G1 X148.000 Y159.445 E18.80138
G1 X143.411 Y154.855 E18.84531
G1 X144.091 Y154.855 E18.84992
G1 X148.680 Y159.445 E18.89385
G1 X149.360 Y159.445 E18.89846
G1 X144.771 Y154.855 E18.94240
G1 X145.451 Y154.855 E18.94700
G1 X150.040 Y159.445 E18.99094
G1 X150.720 Y159.445 E18.99554
G1 X146.131 Y154.855 E19.03948
G1 X146.811 Y154.855 E19.04408
G1 X151.401 Y159.445 E19.08802
G1 X152.081 Y159.445 E19.09262
G1 X147.492 Y154.855 E19.13656
G1 X148.172 Y154.855 E19.14116
G1 X152.761 Y159.445 E19.18510
G1 X153.441 Y159.445 E19.18971
G1 X148.852 Y154.855 E19.23364
G1 X149.532 Y154.855 E19.23825
G1 X154.121 Y159.445 E19.28218
G1 X154.801 Y159.445 E19.28679
G1 X150.212 Y154.855 E19.33072
G1 X150.892 Y154.855 E19.33533
G1 X155.481 Y159.445 E19.37927
G1 X156.162 Y159.445 E19.38387
G1 X151.572 Y154.855 E19.42781
G1 X152.253 Y154.855 E19.43241
G1 X156.842 Y159.445 E19.47635
G1 X157.522 Y159.445 E19.48095
G1 X152.933 Y154.855 E19.52489
G1 X153.613 Y154.855 E19.52949
G1 X158.202 Y159.445 E19.57343
G1 X158.882 Y159.445 E19.57804
