; generated by Slic3r 1.1.7 on 2015-04-26 at 21:46:30

; perimeters extrusion width = 0.35mm
; infill extrusion width = 0.46mm
; solid infill extrusion width = 0.46mm
; top infill extrusion width = 0.46mm

G21 ; set units to millimeters
M107
M190 S115 ; wait for bed temperature to be reached
M104 S240 ; set temperature
G28 ; home all axes
M203 X192 Y208 Z3 ; Speed limits to minimize skipped steps when moving really fast courtesy of forum.lulzbot.com user 1013
M109 S240 ; wait for temperature to be reached
G90 ; use absolute coordinates
G92 E0
M82 ; use absolute distances for extrusion
G1 F1800.000 E-2.00000
G92 E0
G1 Z0.350 F10800.000
G1 X94.495 Y115.303 F10800.000
G1 E2.00000 F1800.000
G1 X98.442 Y112.435 E2.15095 F1080.000
G1 X99.639 Y111.744 E2.19371
G1 X104.096 Y109.760 E2.34468
G1 X105.413 Y109.332 E2.38753
G1 X110.130 Y108.329 E2.53674
G1 X111.561 Y108.173 E2.58129
G1 X186.439 Y108.173 E4.89809
G1 X187.816 Y108.317 E4.94094
G1 X192.587 Y109.332 E5.09185 F1080.000
G1 X193.904 Y109.760 E5.13471
G1 X198.361 Y111.744 E5.28568
G1 X199.559 Y112.436 E5.32847
G1 X203.506 Y115.303 E5.47942
G1 X204.534 Y116.229 E5.52224
G1 X207.798 Y119.854 E5.67315
G1 X208.612 Y120.974 E5.71600
G1 X211.051 Y125.198 E5.86691
G1 X211.614 Y126.464 E5.90976
G1 X213.121 Y131.102 E6.06068
G1 X213.409 Y132.457 E6.10353
G1 X213.788 Y136.063 E6.21573
G1 X213.919 Y137.308 E6.25444
G1 X213.919 Y138.692 E6.29729
G1 X213.409 Y143.543 E6.44821
G1 X213.121 Y144.898 E6.49106
G1 X211.614 Y149.536 E6.64197
G1 X211.051 Y150.802 E6.68482
G1 X208.612 Y155.026 E6.83573
G1 X207.798 Y156.146 E6.87859
G1 X204.534 Y159.771 E7.02950
G1 X203.506 Y160.697 E7.07232
G1 X199.559 Y163.564 E7.22326
G1 X198.309 Y164.279 E7.26782
G1 X193.904 Y166.240 E7.41702
G1 X192.587 Y166.668 E7.45987
G1 X187.816 Y167.683 E7.61079
G1 X186.439 Y167.827 E7.65364
G1 X111.561 Y167.827 E9.97044
G1 X110.184 Y167.683 E10.01329
G1 X105.413 Y166.668 E10.16420
G1 X104.096 Y166.240 E10.20706
G1 X99.639 Y164.256 E10.35803
G1 X98.441 Y163.564 E10.40082
G1 X94.539 Y160.730 E10.55004
G1 X93.466 Y159.771 E10.59458
G1 X90.202 Y156.146 E10.74549
G1 X89.388 Y155.026 E10.78834
G1 X86.949 Y150.802 E10.93925
G1 X86.386 Y149.536 E10.98210
G1 X84.879 Y144.898 E11.13302
G1 X84.591 Y143.543 E11.17587
G1 X84.081 Y138.692 E11.32678
G1 X84.081 Y137.308 E11.36963
G1 X84.591 Y132.457 E11.52054
G1 X84.879 Y131.102 E11.56340
G1 X86.386 Y126.464 E11.71431
G1 X86.949 Y125.198 E11.75716
G1 X89.388 Y120.974 E11.90807
G1 X90.202 Y119.854 E11.95093
G1 X93.466 Y116.229 E12.10184
G1 X94.456 Y115.338 E12.14307
G1 F1800.000 E10.14307
G92 E0
G1 X191.726 Y155.327 F10800.000
G1 E2.00000 F1800.000
G1 X189.571 Y156.365 E2.07402 F1440.000
G1 X187.179 Y156.365 E2.14803
G1 X185.024 Y155.327 E2.22205
G1 X183.532 Y153.457 E2.29606
G1 X183.000 Y151.125 E2.37007
G1 X183.532 Y148.793 E2.44408
G1 X185.024 Y146.923 E2.51810
G1 X187.179 Y145.885 E2.59211
G1 X189.571 Y145.885 E2.66613
G1 X189.872 Y146.030 E2.67645
G1 X191.726 Y146.923 E2.74014 F1440.000
G1 X193.218 Y148.793 E2.81416
G1 X193.750 Y151.125 E2.88817
G1 X193.218 Y153.457 E2.96218
G1 X191.759 Y155.286 E3.03457
G1 X191.327 Y154.826 F10800.000
G1 X189.428 Y155.740 E3.09976 F1008.000
G1 X187.322 Y155.740 E3.16495
G1 X185.423 Y154.826 E3.23014
G1 X184.110 Y153.179 E3.29532
G1 X183.641 Y151.125 E3.36051
G1 X184.110 Y149.071 E3.42570
G1 X185.423 Y147.424 E3.49089
G1 X187.322 Y146.510 E3.55608
G1 X189.428 Y146.510 E3.62126 F1008.000
G1 X191.327 Y147.424 E3.68645
G1 X192.640 Y149.071 E3.75164
G1 X193.109 Y151.125 E3.81683
G1 X192.640 Y153.179 E3.88201
G1 X191.359 Y154.785 E3.94558
G1 F1800.000 E1.94558
G92 E0
G1 X187.244 Y146.168 F10800.000
G1 X189.571 Y143.240 F10800.000
G1 E2.00000 F1800.000
G1 X187.179 Y143.240 E2.07401 F1440.000
G1 X185.024 Y142.202 E2.14803
G1 X183.532 Y140.332 E2.22204
G1 X183.000 Y138.000 E2.29606
G1 X183.532 Y135.668 E2.37007
G1 X185.024 Y133.798 E2.44408
G1 X187.179 Y132.760 E2.51810
G1 X189.571 Y132.760 E2.59211
G1 X189.872 Y132.905 E2.60244
G1 X191.726 Y133.798 E2.66613 F1440.000
G1 X193.218 Y135.668 E2.74014
G1 X193.750 Y138.000 E2.81415
G1 X193.218 Y140.332 E2.88817
G1 X191.726 Y142.202 E2.96218
G1 X189.618 Y143.217 E3.03457
G1 X189.428 Y142.615 F10800.000
G1 X187.322 Y142.615 E3.09976 F1008.000
G1 X185.423 Y141.701 E3.16495
G1 X184.110 Y140.054 E3.23014
G1 X183.641 Y138.000 E3.29532
G1 X184.110 Y135.946 E3.36051
G1 X185.423 Y134.299 E3.42570
G1 X187.322 Y133.385 E3.49089
G1 X189.428 Y133.385 E3.55607 F1008.000
G1 X191.327 Y134.299 E3.62126
G1 X192.640 Y135.946 E3.68645
G1 X193.109 Y138.000 E3.75164
G1 X192.640 Y140.054 E3.81683
G1 X191.327 Y141.701 E3.88201
G1 X189.476 Y142.593 E3.94558
G1 F1800.000 E1.94558
G92 E0
G1 X187.269 Y133.039 F10800.000
G1 X189.428 Y130.115 F10800.000
G1 E2.00000 F1800.000
G1 X187.179 Y130.115 E2.06960 F1440.000
G1 X185.024 Y129.077 E2.14362
G1 X183.532 Y127.207 E2.21763
G1 X183.000 Y124.875 E2.29164
G1 X183.532 Y122.543 E2.36565
G1 X185.024 Y120.673 E2.43967
G1 X187.179 Y119.635 E2.51369
G1 X189.571 Y119.635 E2.58770
G1 X189.872 Y119.780 E2.59802
G1 X191.726 Y120.673 E2.66171 F1440.000
G1 X193.218 Y122.543 E2.73573
G1 X193.750 Y124.875 E2.80974
G1 X193.218 Y127.207 E2.88375
G1 X191.726 Y129.077 E2.95777
G1 X189.571 Y130.115 E3.03178
G1 X189.481 Y130.115 E3.03457
G1 X189.428 Y129.490 F10800.000
G1 X187.322 Y129.490 E3.09976 F1008.000
G1 X185.423 Y128.576 E3.16495
G1 X184.110 Y126.929 E3.23014
G1 X183.641 Y124.875 E3.29532
G1 X184.110 Y122.821 E3.36051
G1 X185.423 Y121.174 E3.42570
G1 X187.322 Y120.260 E3.49089
G1 X189.428 Y120.260 E3.55607 F1008.000
G1 X191.327 Y121.174 E3.62126
G1 X192.640 Y122.821 E3.68645
G1 X193.109 Y124.875 E3.75164
G1 X192.640 Y126.929 E3.81682
G1 X191.327 Y128.576 E3.88201
G1 X189.476 Y129.468 E3.94558
G1 F1800.000 E1.94558
G92 E0
G1 X187.269 Y119.914 F10800.000
G1 X180.093 Y127.207 F10800.000
G1 E2.00000 F1800.000
G1 X178.601 Y129.077 E2.07401 F1440.000
G1 X176.446 Y130.115 E2.14803
G1 X174.054 Y130.115 E2.22204
G1 X171.899 Y129.077 E2.29606
G1 X170.407 Y127.207 E2.37007
G1 X169.875 Y124.875 E2.44409
G1 X170.407 Y122.543 E2.51810
G1 X171.899 Y120.673 E2.59211
G1 X174.054 Y119.635 E2.66613
G1 X176.446 Y119.635 E2.74014
G1 X176.747 Y119.780 E2.75047
G1 X178.601 Y120.673 E2.81416 F1440.000
G1 X180.093 Y122.543 E2.88817
G1 X180.625 Y124.875 E2.96218
G1 X180.104 Y127.156 E3.03457
G1 X179.515 Y126.929 F10800.000
G1 X178.202 Y128.576 E3.09976 F1008.000
G1 X176.303 Y129.490 E3.16495
G1 X174.197 Y129.490 E3.23014
G1 X172.298 Y128.576 E3.29533
G1 X170.985 Y126.929 E3.36051
G1 X170.516 Y124.875 E3.42570
G1 X170.985 Y122.821 E3.49089
G1 X172.298 Y121.174 E3.55607
G1 X174.197 Y120.260 E3.62126
G1 X176.303 Y120.260 E3.68645 F1008.000
G1 X178.202 Y121.174 E3.75164
G1 X179.515 Y122.821 E3.81683
G1 X179.984 Y124.875 E3.88201
G1 X179.527 Y126.878 E3.94558
G1 F1800.000 E1.94558
G92 E0
G1 X174.093 Y119.925 F10800.000
G1 X176.658 Y132.862 F10800.000
G1 E2.00000 F1800.000
G1 X176.747 Y132.905 E2.00304 F1440.000
G1 X178.601 Y133.798 E2.06673 F1440.000
G1 X180.093 Y135.668 E2.14074
G1 X180.625 Y138.000 E2.21476
G1 X180.093 Y140.332 E2.28877
G1 X178.601 Y142.202 E2.36279
G1 X176.446 Y143.240 E2.43680
G1 X174.054 Y143.240 E2.51081
G1 X171.899 Y142.202 E2.58483
G1 X170.407 Y140.332 E2.65884
G1 X169.875 Y138.000 E2.73286
G1 X170.407 Y135.668 E2.80687
G1 X171.899 Y133.798 E2.88088
G1 X174.054 Y132.760 E2.95490
G1 X176.446 Y132.760 E3.02891
G1 X176.611 Y132.839 E3.03457
G1 X176.387 Y133.425 F10800.000
G1 X178.202 Y134.299 E3.09689 F1008.000
G1 X179.515 Y135.946 E3.16208
G1 X179.984 Y138.000 E3.22727
G1 X179.515 Y140.054 E3.29245
G1 X178.202 Y141.701 E3.35764
G1 X176.303 Y142.615 E3.42283
G1 X174.197 Y142.615 E3.48802
G1 X172.298 Y141.701 E3.55321
G1 X170.985 Y140.054 E3.61839
G1 X170.516 Y138.000 E3.68358
G1 X170.985 Y135.946 E3.74877
G1 X172.298 Y134.299 E3.81396
G1 X174.197 Y133.385 E3.87915
G1 X176.303 Y133.385 E3.94433 F1008.000
G1 X176.340 Y133.402 E3.94558
G1 X174.022 Y133.082 F10800.000
G1 F1800.000 E1.94558
G92 E0
G1 X176.387 Y145.885 F10800.000
G1 E2.00000 F1800.000
G1 X176.446 Y145.885 E2.00183 F1440.000
G1 X176.747 Y146.030 E2.01215
G1 X178.601 Y146.923 E2.07584 F1440.000
G1 X180.093 Y148.793 E2.14986
G1 X180.625 Y151.125 E2.22387
G1 X180.093 Y153.457 E2.29788
G1 X178.601 Y155.327 E2.37190
G1 X176.446 Y156.365 E2.44591
G1 X174.054 Y156.365 E2.51992
G1 X171.899 Y155.327 E2.59394
G1 X170.407 Y153.457 E2.66795
G1 X169.875 Y151.125 E2.74197
G1 X170.407 Y148.793 E2.81598
G1 X171.899 Y146.923 E2.88999
G1 X174.054 Y145.885 E2.96401
G1 X176.335 Y145.885 E3.03457
G1 X176.303 Y146.510 F10800.000
G1 X178.202 Y147.424 E3.09976 F1008.000
G1 X179.515 Y149.071 E3.16495
G1 X179.984 Y151.125 E3.23014
G1 X179.515 Y153.179 E3.29532
G1 X178.202 Y154.826 E3.36051
G1 X176.303 Y155.740 E3.42570
G1 X174.197 Y155.740 E3.49089
G1 X172.298 Y154.826 E3.55608
G1 X170.985 Y153.179 E3.62126
G1 X170.516 Y151.125 E3.68645
G1 X170.985 Y149.071 E3.75164
G1 X172.298 Y147.424 E3.81683
G1 X174.197 Y146.510 E3.88202
G1 X176.251 Y146.510 E3.94558 F1008.000
G1 X174.197 Y146.160 F10800.000
G1 X166.968 Y148.793 F10800.000
G1 X167.500 Y151.125 E4.01959 F1440.000
G1 X166.968 Y153.457 E4.09360
G1 X165.476 Y155.327 E4.16762
G1 X163.321 Y156.365 E4.24163
G1 X160.929 Y156.365 E4.31564
G1 X158.774 Y155.327 E4.38966
G1 X157.282 Y153.457 E4.46368
G1 X156.750 Y151.125 E4.53769
G1 X157.282 Y148.793 E4.61170
G1 X158.774 Y146.923 E4.68572
G1 X160.929 Y145.885 E4.75973
G1 X163.321 Y145.885 E4.83374
G1 X163.622 Y146.030 E4.84407
G1 X165.476 Y146.923 E4.90776 F1440.000
G1 X166.935 Y148.752 E4.98015
G1 X166.390 Y149.071 F10800.000
G1 X166.859 Y151.125 E5.04534 F1008.000
G1 X166.390 Y153.179 E5.11052
G1 X165.077 Y154.826 E5.17571
G1 X163.178 Y155.740 E5.24090
G1 X161.072 Y155.740 E5.30609
G1 X159.173 Y154.826 E5.37128
G1 X157.860 Y153.179 E5.43647
G1 X157.391 Y151.125 E5.50165
G1 X157.860 Y149.071 E5.56684
G1 X159.173 Y147.424 E5.63203
G1 X161.072 Y146.510 E5.69722
G1 X163.178 Y146.510 E5.76240 F1008.000
G1 X165.077 Y147.424 E5.82759
G1 X166.357 Y149.030 E5.89116
G1 F1800.000 E3.89116
G92 E0
G1 X160.920 Y146.194 F10800.000
G1 X154.375 Y151.125 F10800.000
G1 E2.00000 F1800.000
G1 X153.843 Y153.457 E2.07401 F1440.000
G1 X152.351 Y155.327 E2.14803
G1 X150.196 Y156.365 E2.22204
G1 X147.804 Y156.365 E2.29606
G1 X145.649 Y155.327 E2.37007
G1 X144.157 Y153.457 E2.44409
G1 X143.625 Y151.125 E2.51810
G1 X144.157 Y148.793 E2.59211
G1 X145.649 Y146.923 E2.66613
G1 X147.804 Y145.885 E2.74014
G1 X150.196 Y145.885 E2.81415
G1 X150.497 Y146.030 E2.82448
G1 X152.351 Y146.923 E2.88817 F1440.000
G1 X153.843 Y148.793 E2.96218
G1 X154.363 Y151.074 E3.03457
G1 X153.734 Y151.125 F10800.000
G1 X153.265 Y153.179 E3.09976 F1008.000
G1 X151.952 Y154.826 E3.16495
G1 X150.053 Y155.740 E3.23014
G1 X147.947 Y155.740 E3.29532
G1 X146.048 Y154.826 E3.36051
G1 X144.735 Y153.179 E3.42570
G1 X144.266 Y151.125 E3.49089
G1 X144.735 Y149.071 E3.55607
G1 X146.048 Y147.424 E3.62126
G1 X147.947 Y146.510 E3.68645
G1 X150.053 Y146.510 E3.75164 F1008.000
G1 X151.952 Y147.424 E3.81683
G1 X153.265 Y149.071 E3.88202
G1 X153.722 Y151.074 E3.94558
G1 F1800.000 E1.94558
G92 E0
G1 X147.819 Y146.184 F10800.000
G1 X150.196 Y143.240 F10800.000
G1 E2.00000 F1800.000
G1 X147.804 Y143.240 E2.07401 F1440.000
G1 X145.649 Y142.202 E2.14803
G1 X144.157 Y140.332 E2.22204
G1 X143.625 Y138.000 E2.29606
G1 X144.157 Y135.668 E2.37007
G1 X145.649 Y133.798 E2.44409
G1 X147.804 Y132.760 E2.51810
G1 X150.196 Y132.760 E2.59211
G1 X150.497 Y132.905 E2.60244
G1 X152.351 Y133.798 E2.66613 F1440.000
G1 X153.843 Y135.668 E2.74014
G1 X154.375 Y138.000 E2.81416
G1 X153.843 Y140.332 E2.88817
G1 X152.351 Y142.202 E2.96218
G1 X150.243 Y143.217 E3.03457
G1 X150.053 Y142.615 F10800.000
G1 X147.947 Y142.615 E3.09976 F1008.000
G1 X146.048 Y141.701 E3.16495
G1 X144.735 Y140.054 E3.23014
G1 X144.692 Y139.868 E3.23605
G1 X144.266 Y138.000 E3.29533
G1 X144.735 Y135.946 E3.36051
G1 X146.048 Y134.299 E3.42570
G1 X147.947 Y133.385 E3.49089
G1 X150.053 Y133.385 E3.55608 F1008.000
G1 X150.226 Y133.468 E3.56199
G1 X151.952 Y134.299 E3.62127
G1 X153.265 Y135.946 E3.68645
G1 X153.734 Y138.000 E3.75164
G1 X153.265 Y140.054 E3.81683
G1 X151.952 Y141.701 E3.88202
G1 X150.101 Y142.593 E3.94558
G1 F1800.000 E1.94558
G92 E0
G1 X147.894 Y133.039 F10800.000
G1 X157.282 Y140.332 F10800.000
G1 E2.00000 F1800.000
G1 X156.750 Y138.000 E2.07401 F1440.000
G1 X157.282 Y135.668 E2.14803
G1 X158.774 Y133.798 E2.22204
G1 X160.929 Y132.760 E2.29606
G1 X163.321 Y132.760 E2.37007
G1 X163.622 Y132.905 E2.38040
G1 X165.476 Y133.798 E2.44409 F1440.000
G1 X166.968 Y135.668 E2.51810
G1 X167.500 Y138.000 E2.59211
G1 X166.968 Y140.332 E2.66613
G1 X165.476 Y142.202 E2.74014
G1 X163.321 Y143.240 E2.81416
G1 X160.929 Y143.240 E2.88817
G1 X158.774 Y142.202 E2.96218
G1 X157.315 Y140.373 E3.03457
G1 X157.860 Y140.054 F10800.000
G1 X157.391 Y138.000 E3.09976 F1008.000
G1 X157.860 Y135.946 E3.16495
G1 X159.173 Y134.299 E3.23014
G1 X161.072 Y133.385 E3.29533
G1 X163.178 Y133.385 E3.36051 F1008.000
G1 X165.077 Y134.299 E3.42570
G1 X166.390 Y135.946 E3.49089
G1 X166.859 Y138.000 E3.55608
G1 X166.390 Y140.054 E3.62127
G1 X165.077 Y141.701 E3.68645
G1 X163.178 Y142.615 E3.75164
G1 X161.072 Y142.615 E3.81683
G1 X159.173 Y141.701 E3.88202
G1 X157.893 Y140.095 E3.94558
G1 F1800.000 E1.94558
G92 E0
G1 X161.098 Y133.036 F10800.000
G1 X160.929 Y130.115 F10800.000
G1 E2.00000 F1800.000
G1 X158.774 Y129.077 E2.07402 F1440.000
G1 X157.282 Y127.207 E2.14803
G1 X156.750 Y124.875 E2.22204
G1 X157.282 Y122.543 E2.29606
G1 X158.774 Y120.673 E2.37007
G1 X160.929 Y119.635 E2.44409
G1 X163.321 Y119.635 E2.51810
G1 X163.622 Y119.780 E2.52843
G1 X165.476 Y120.673 E2.59212 F1440.000
G1 X166.968 Y122.543 E2.66613
G1 X167.500 Y124.875 E2.74014
G1 X166.968 Y127.207 E2.81415
G1 X165.476 Y129.077 E2.88817
G1 X163.321 Y130.115 E2.96218
G1 X160.981 Y130.115 E3.03457
G1 X161.072 Y129.490 F10800.000
G1 X159.173 Y128.576 E3.09976 F1008.000
G1 X157.860 Y126.929 E3.16495
G1 X157.391 Y124.875 E3.23014
G1 X157.860 Y122.821 E3.29532
G1 X159.173 Y121.174 E3.36051
G1 X161.072 Y120.260 E3.42570
G1 X163.178 Y120.260 E3.49089 F1008.000
G1 X165.077 Y121.174 E3.55608
G1 X166.390 Y122.821 E3.62127
G1 X166.859 Y124.875 E3.68645
G1 X166.390 Y126.929 E3.75164
G1 X165.077 Y128.576 E3.81683
G1 X163.178 Y129.490 E3.88202
G1 X161.124 Y129.490 E3.94558
G1 F1800.000 E1.94558
G92 E0
G1 X161.045 Y119.911 F10800.000
G1 X153.843 Y127.207 F10800.000
G1 E2.00000 F1800.000
G1 X152.351 Y129.077 E2.07402 F1440.000
G1 X150.196 Y130.115 E2.14803
G1 X147.804 Y130.115 E2.22204
G1 X145.649 Y129.077 E2.29606
G1 X144.157 Y127.207 E2.37007
G1 X143.625 Y124.875 E2.44409
G1 X144.157 Y122.543 E2.51810
G1 X145.649 Y120.673 E2.59211
G1 X147.804 Y119.635 E2.66613
G1 X150.196 Y119.635 E2.74014
G1 X150.497 Y119.780 E2.75047
G1 X152.351 Y120.673 E2.81416 F1440.000
G1 X153.843 Y122.543 E2.88817
G1 X154.375 Y124.875 E2.96219
G1 X153.854 Y127.156 E3.03457
G1 X153.265 Y126.929 F10800.000
G1 X151.952 Y128.576 E3.09976 F1008.000
G1 X150.053 Y129.490 E3.16495
G1 X147.947 Y129.490 E3.23014
G1 X146.048 Y128.576 E3.29533
G1 X144.735 Y126.929 E3.36052
G1 X144.266 Y124.875 E3.42570
G1 X144.735 Y122.821 E3.49089
G1 X146.048 Y121.174 E3.55608
G1 X147.947 Y120.260 E3.62127
G1 X150.053 Y120.260 E3.68645 F1008.000
G1 X151.952 Y121.174 E3.75164
G1 X153.265 Y122.821 E3.81683
G1 X153.734 Y124.875 E3.88202
G1 X153.277 Y126.878 E3.94558
G1 F1800.000 E1.94558
G92 E0
G1 X147.843 Y119.925 F10800.000
G1 X141.250 Y124.875 F10800.000
G1 E2.00000 F1800.000
G1 X140.718 Y127.207 E2.07401 F1440.000
G1 X139.226 Y129.077 E2.14803
G1 X137.071 Y130.115 E2.22204
G1 X134.679 Y130.115 E2.29606
G1 X132.524 Y129.077 E2.37007
G1 X131.032 Y127.207 E2.44409
G1 X130.500 Y124.875 E2.51810
G1 X131.032 Y122.543 E2.59211
G1 X132.524 Y120.673 E2.66612
G1 X134.679 Y119.635 E2.74014
G1 X137.071 Y119.635 E2.81415
G1 X137.372 Y119.780 E2.82448
G1 X139.226 Y120.673 E2.88817 F1440.000
G1 X140.718 Y122.543 E2.96218
G1 X141.238 Y124.824 E3.03457
G1 X140.609 Y124.875 F10800.000
G1 X140.140 Y126.929 E3.09976 F1008.000
